X:54
T:The Rockers
R:reel
C:Paul S. Cranford
O:Cape Breton Island
S:http://www.cranfordpub.com
D:currently unrecorded
B:currently unpublished in book form
Z:psc, (re-formatted,updated 9/17/04)
N:
H:                                                        copyrights Cranford Publications, SOCAN
Q:333
M:C|
K:Dmix
DFdA cedc|DFdA c2 {e}d^c|dAFA GBAF|GdFd EGFE|
DFdA cedc|DFdA c2  fe|d2 AF GBAG|1FAGE D2 FE:|2FAGE D2:|
|:FG|A2 dF A2 GF|DG{A}GF ~G2 FE|~F2 dF ~F2 Dd|cAGF G2 FG|
A2 dF A2 GF|DG{A}GF ~G2 FE|~F2 DF DFDG|1FAGE D2:|2FAGE D2 FE|]
